!!!COM: Erkel, Ferenc
!!!CDT: 1810-1893
!!!OTL: National Anthem, Hungary
!!!ENC: Davis, Matthew J.
!!Vocal Line Only
**kern
*clefG2
*k[b-e-]
*B-:
*M4/4
=1-
1r
=2
1r
=3
1r
=4
1r
==5
4.d
8e-
4f
4b-
=6
4f
4e-
2d
=7
4g
4f
4e-
4d
=8
4c
4d
2e-
=9
4.c
8d
4e-
4cc
=10
4e-
4d
2c
=11
4f
4e-
4d
4c
=12
4B-
4c
2d
=13
4.b-
8a
4g
4f#
=14
4g
4a
2d
=15
4.dd
8cc
4b-
4a
=16
4b-
4cc
2f
=17
4.ee-
8dd
4cc
4b-
=18
4.a
8g
4f
4e-
=19
4d
4d
4c
8c
8d
=20
2.B-
4r
=21
8f
8e-
8fq
8.e-
16d
4e-
4d
=22
[2c
8c]
8Bn
8c
8d
=23
8c
8B-
8cq
8.B-
16A
2B-
==|!
*-
